packages/tokens/icons/commerce/size16Px.svg

<svg viewBox="0 0 16 16" fill="none" xmlns="http://www.w3.org/2000/svg" width="1em" height="1em"><path d="M5.50004 5.49998L2.9789 10.1221C2.71444 10.6069 2.89309 11.2144 3.37794 11.4788L8.00005 14" stroke="currentColor" stroke-linecap="round"/><path d="M9.26541 3.90421C8.87901 4.01461 8.55306 4.27543 8.36063 4.62823L6.03631 8.88951C5.64179 9.6128 5.90448 10.5189 6.62469 10.919L9.34429 12.4299C10.0908 12.8446 11.0325 12.5533 11.4144 11.7895L13.7621 7.09415C13.94 6.73832 13.9693 6.32639 13.8435 5.94898L13.2772 4.25026C13.0233 3.48839 12.2143 3.0617 11.4421 3.28231L9.26541 3.90421Z" stroke="currentColor" stroke-linecap="round"/><path d="M11.4666 5.55801C11.3975 5.67759 11.2446 5.71855 11.1251 5.64952C11.0055 5.58048 10.9645 5.42759 11.0336 5.30801C11.1026 5.18844 11.2555 5.14747 11.3751 5.21651C11.4946 5.28554 11.5356 5.43844 11.4666 5.55801Z" stroke="currentColor" stroke-width="0.5"/></svg>

<svg xmlns="http://www.w3.org/2000/svg" fill="none" viewBox="0 0 16 16" width="1em" height="1em"><path stroke="currentColor" stroke-linecap="round" d="m5.5 5.5-2.521 4.622a1 1 0 0 0 .399 1.357L8 14"/><path stroke="currentColor" stroke-linecap="round" d="M9.265 3.904a1.5 1.5 0 0 0-.904.724L6.036 8.89a1.5 1.5 0 0 0 .589 2.029l2.72 1.51a1.5 1.5 0 0 0 2.07-.64l2.347-4.695a1.5 1.5 0 0 0 .082-1.145l-.567-1.699a1.5 1.5 0 0 0-1.835-.968l-2.177.622Z"/><path stroke="currentColor" stroke-width=".5" d="M11.467 5.558a.25.25 0 1 1-.433-.25.25.25 0 0 1 .433.25Z"/></svg>
